X:3073
T:Roselil og hendes moder
C:anon.
O:Denmark
F:http://abc.musicaviva.com/tunes/denmark/roselil-a/roselil-a-1.abc
M:3/4
L:1/8
Q:1/4=144
K:A
cB|"A"B2A2AA|"A"A3Ae2|"D"f2d2d2|"A"c4:|e2|
"D"f3ga2|"A"e2d2c2|"E"B2A2G2|"A"A4AB|
"A"c2zB cA|"E"B4AB|"A"c2zB cA|"E"B4e2|
"D"f3ga2|"A"e2d2c2|"E"B2A2G2|"A"A4|]
W:
W:
W:  From Musica Viva - http://www.musicaviva.com
W:  the Internet center for free sheet music downloads.

